X: 4
T: the Scartaglen Polka
R: polka
S: Fiddle Hell Online 2021-11-__ Matt Cranitch workshop
Z: 2021 John Chambers <jc:trillian.mit.edu>
M: 2/4
L: 1/16
K: D
(vB |\
A2F2) A4 | (B2G2) B4 | (c2A2) (B2cd) | (e2d2) (BcdB) |\
(vA2F2) (A2c2) | (B2G2) (B2d2) | (c2A2) (ABcd) | (e2d2) d3 :|
|: (vB |\
A2d2) f4 | (f2e2) e4 | (e2f2) (g2a2) | (b2a2) a3(vf |\
e2f2) (g2ag) | (f2e2) e3(vf | e2f2) g2Bc | (e2d2) d3 :|

